X: 20872
M: 2/4
L: 1/16
K: F
V: 1 name="6"
c2A2 A2f2 | gfef c3A | Bcdc BAGF | EFGA cBAB |\
c2A2 A2f2 | fgaf c3A | BcdB AGFE | F2A2F2 H|]
EF |\
K: Fdor


